lib/brands/icons/apple-app-store.svg

<svg xmlns="http://www.w3.org/2000/svg" fill="none" aria-hidden="true" viewBox="0 0 48 48"><g id="apple-app-store-Icon"><g id="AppStore"><path id="Vector" fill="url(#paint0_linear_94_17115)" d="M34.7244 6H13.2711C9.25309 6 6 9.2535 6 13.272V34.7325C6 38.7465 9.25309 42 13.2711 42H34.7289C38.7424 42 42 38.7465 42 34.728V13.272C41.9955 9.2535 38.7424 6 34.7244 6Z"/><path id="Vector_2" fill="white" d="M23.8452 14.271L24.5741 13.011C25.0241 12.2235 26.0275 11.958 26.8149 12.408C27.6023 12.858 27.8677 13.8615 27.4178 14.649L20.3942 26.808H25.474C27.1208 26.808 28.0432 28.743 27.3278 30.084H12.4347C11.5258 30.084 10.7969 29.355 10.7969 28.446C10.7969 27.537 11.5258 26.808 12.4347 26.808H16.6101L21.9555 17.5425L20.2862 14.6445C19.8362 13.857 20.1017 12.8625 20.8891 12.4035C21.6765 11.9535 22.6709 12.219 23.1298 13.0065L23.8452 14.271ZM17.528 31.7715L15.9532 34.503C15.5033 35.2905 14.4999 35.556 13.7125 35.106C12.9251 34.656 12.6596 33.6525 13.1096 32.865L14.2794 30.84C15.6023 30.4305 16.6776 30.7455 17.528 31.7715ZM31.0893 26.817H35.3503C36.2592 26.817 36.9881 27.546 36.9881 28.455C36.9881 29.364 36.2592 30.093 35.3503 30.093H32.9836L34.5809 32.865C35.0308 33.6525 34.7654 34.647 33.978 35.106C33.1906 35.556 32.1962 35.2905 31.7373 34.503C29.0466 29.8365 27.0263 26.3445 25.6855 24.018C24.3132 21.651 25.2941 19.275 26.2614 18.4695C27.3368 20.3145 28.9431 23.1 31.0893 26.817Z"/></g></g><defs><linearGradient id="paint0_linear_94_17115" x1="23.9977" x2="23.9977" y1="6" y2="42" gradientUnits="userSpaceOnUse"><stop stop-color="#0ED4FC"/><stop offset="1" stop-color="#0C57EF"/></linearGradient></defs></svg>

<svg xmlns="http://www.w3.org/2000/svg" fill="none" aria-hidden="true" viewBox="0 0 48 48"><path fill="url(#a)" d="M34.724 6H13.271A7.269 7.269 0 0 0 6 13.272v21.46A7.268 7.268 0 0 0 13.271 42H34.73A7.272 7.272 0 0 0 42 34.728V13.272A7.275 7.275 0 0 0 34.724 6Z"/><path fill="#fff" d="m23.845 14.271.73-1.26a1.64 1.64 0 1 1 2.843 1.638l-7.024 12.159h5.08c1.647 0 2.57 1.935 1.854 3.276H12.435a1.632 1.632 0 0 1-1.638-1.638c0-.909.729-1.638 1.638-1.638h4.175l5.346-9.265-1.67-2.898a1.642 1.642 0 0 1 2.844-1.638l.715 1.264Zm-6.317 17.5-1.575 2.732a1.64 1.64 0 1 1-2.843-1.638l1.17-2.025c1.322-.41 2.398-.095 3.248.931Zm13.561-4.954h4.261c.91 0 1.638.729 1.638 1.638 0 .909-.729 1.638-1.638 1.638h-2.366l1.597 2.772a1.642 1.642 0 0 1-2.844 1.638c-2.69-4.666-4.71-8.159-6.052-10.485-1.372-2.367-.39-4.743.576-5.549 1.076 1.845 2.682 4.631 4.828 8.348Z"/><defs><linearGradient id="a" x1="23.998" x2="23.998" y1="6" y2="42" gradientUnits="userSpaceOnUse"><stop stop-color="#0ED4FC"/><stop offset="1" stop-color="#0C57EF"/></linearGradient></defs></svg>
